public/imagenes/portafolio/astro.svg

<svg width="100" height="100" viewBox="0 0 100 100" fill="none" xmlns="http://www.w3.org/2000/svg">
<path d="M12.5 64.375C12.5 64.375 25.3906 58.125 38.2812 58.125L47.9688 28.2031C48.3594 26.6406 49.375 25.7031 50.5469 25.7031C51.7969 25.7031 52.8906 26.7187 53.2031 28.2031L62.8906 58.125C78.2031 58.125 88.6719 64.375 88.6719 64.375L66.7969 5C66.1719 3.20313 65.0781 2.10938 63.6719 2.10938H37.5C36.0938 2.10938 35.0781 3.20313 34.375 5L12.5 64.375Z" fill="black"/>
<path d="M37.2656 83.6719C32.9687 79.7656 31.6406 71.4062 33.4375 65.3906C36.5625 69.2188 40.9375 70.3906 45.4687 71.0938C52.4218 72.1094 59.2187 71.7188 65.7031 68.5938L67.8906 67.2656C68.7331 70.1299 68.6421 73.188 67.6308 75.9971C66.6195 78.8062 64.7404 81.2206 62.2656 82.8906L57.9687 85.8594C53.5937 88.8281 52.3437 92.2656 54.0625 97.3438L54.2187 97.8906C52.081 97.0136 50.2759 95.482 49.0625 93.5156C47.7495 91.5198 47.0439 89.1858 47.0312 86.7969C47.0312 85.625 47.0312 84.4531 46.875 83.2813C46.4843 80.3906 45.1562 79.1406 42.5781 79.0625C40 78.9844 37.9687 80.625 37.4218 83.125L37.2656 83.6719Z" fill="url(#paint0_linear_110_32)"/>
<defs>
<linearGradient id="paint0_linear_110_32" x1="50.5468" y1="93.125" x2="60.4687" y2="60.4687" gradientUnits="userSpaceOnUse">
<stop stop-color="#D83333"/>
<stop offset="1" stop-color="#F041FF"/>
</linearGradient>
</defs>
</svg>

<svg xmlns="http://www.w3.org/2000/svg" fill="none" viewBox="0 0 100 100"><path fill="#000" d="M12.5 64.375s12.89-6.25 25.781-6.25l9.688-29.922c.39-1.562 1.406-2.5 2.578-2.5 1.25 0 2.344 1.016 2.656 2.5l9.688 29.922c15.312 0 25.78 6.25 25.78 6.25L66.798 5c-.625-1.797-1.719-2.89-3.125-2.89H37.5c-1.406 0-2.422 1.093-3.125 2.89L12.5 64.375Z"/><path fill="url(#a)" d="M37.266 83.672c-4.297-3.906-5.625-12.266-3.828-18.281 3.124 3.828 7.5 5 12.03 5.703 6.954 1.015 13.75.625 20.235-2.5l2.188-1.328a14.062 14.062 0 0 1-5.625 15.625l-4.297 2.968c-4.375 2.97-5.625 6.407-3.907 11.485l.157.547a10.937 10.937 0 0 1-5.157-4.375 12.344 12.344 0 0 1-2.03-6.72c0-1.171 0-2.343-.157-3.515-.39-2.89-1.719-4.14-4.297-4.219-2.578-.078-4.61 1.563-5.156 4.063l-.156.547Z"/><defs><linearGradient id="a" x1="50.547" x2="60.469" y1="93.125" y2="60.469" gradientUnits="userSpaceOnUse"><stop stop-color="#D83333"/><stop offset="1" stop-color="#F041FF"/></linearGradient></defs></svg>
